X:2
T:Come Rain Or Come Shine
C:Harold Arlen & Johnny Mercer
L:1/8
M:C
I:linebreak $
K:Gb
"Gb" B2 BB"B" B B2 B |"Fm" BB B2"Bb7" B B2 B |"Ebm" BG G2"EbmM" G4 |"Ebm" z4"Ebm6" z4 |$
"Ebm" B2 BB"Ab7" B B2 B |"Abm" dB B2"Db7" B B2 B |"Dbm" BG G2"Gb7" G4 |"Dbm" z4"Gb7" z4 |$
"Bm" c6"E7" =Ac |"Gbm" d G3"B7" G2 G2 |"Bm" c6"Am" =Ac |"Abm" d4"Db7" z4 |$"Cø" e6"F7" de |
"Bbø" =e4"Eb7" d2 _e2 |"D7" =ed"Db7" _e2"C7" d2"B7" cA |"Bb7" B2"A7" A2"Ab7" z2"G7" z2 |$
"Gb" B2 BB"B" B B2 B |"Fm" BB B2"Bb7" B B2 B |"Ebm" BG G2"EbmM" G4 |"Ebm" z4"Ebm6" z4 |$
"Ab7" =c2 =c=c =c =c2 =c |"Gm" =c=c =c2"C7" =c =c2 =c |"Fm" =dB B2"Bb7" B4 |"Fm" z4"Bb7" z4 |$
"Eb7" e2 ee"Bbm" e e2 e |"Gbo" e2 E2"Eb7" E4 |"Ab7" e2 ee"Ebm" e e2 e |"Bo" e2 E2"Ab7" G4 |$
"Ebm" B2 Bc"Ab7" =c e3 |"B7" f2 fe"Bb4" fe f2 |"Eb7" e8 | z8 |]

